ix/call-received_linear.svg

<svg viewBox="0 0 24 24" fill="none" xmlns="http://www.w3.org/2000/svg" height="1em" width="1em">
  <path d="M21.97 18.33c0 .36-.08.73-.25 1.09-.17.36-.39.7-.68 1.02-.49.54-1.03.93-1.64 1.18-.6.25-1.25.38-1.95.38-1.02 0-2.11-.24-3.26-.73s-2.3-1.15-3.44-1.98a28.75 28.75 0 0 1-3.28-2.8 28.414 28.414 0 0 1-2.79-3.27c-.82-1.14-1.48-2.28-1.96-3.41C2.24 8.67 2 7.58 2 6.54c0-.68.12-1.33.36-1.93.24-.61.62-1.17 1.15-1.67C4.15 2.31 4.85 2 5.59 2c.28 0 .56.06.81.18.26.12.49.3.67.56l2.32 3.27c.18.25.31.48.4.7.09.21.14.42.14.61 0 .24-.07.48-.21.71-.13.23-.32.47-.56.71l-.76.79c-.11.11-.16.24-.16.4 0 .08.01.15.03.23.03.08.06.14.08.2.18.33.49.76.93 1.28.45.52.93 1.05 1.45 1.58.54.53 1.06 1.02 1.59 1.47.52.44.95.74 1.29.92.05.02.11.05.18.08.08.03.16.04.25.04.17 0 .3-.06.41-.17l.76-.75c.25-.25.49-.44.72-.56.23-.14.46-.21.71-.21.19 0 .39.04.61.13.22.09.45.22.7.39l3.31 2.35c.26.18.44.39.55.64.1.25.16.5.16.78Z" stroke="#292D32" stroke-width="1.5" stroke-miterlimit="10"/>
  <path d="m15 5.97 2 2 4-4" stroke="#292D32" stroke-width="1.5" stroke-linecap="round" stroke-linejoin="round"/>
</svg>

<svg viewBox="0 0 24 24" fill="none" xmlns="http://www.w3.org/2000/svg" height="1em" width="1em">
  <path d="M21.97 18.33C21.97 18.69 21.89 19.06 21.72 19.42C21.55 19.78 21.33 20.12 21.04 20.44C20.55 20.98 20.01 21.37 19.4 21.62C18.8 21.87 18.15 22 17.45 22C16.43 22 15.34 21.76 14.19 21.27C13.04 20.78 11.89 20.12 10.75 19.29C9.6 18.45 8.51 17.52 7.47 16.49C6.44 15.45 5.51 14.36 4.68 13.22C3.86 12.08 3.2 10.94 2.72 9.81C2.24 8.67 2 7.58 2 6.54C2 5.86 2.12 5.21 2.36 4.61C2.6 4 2.98 3.44 3.51 2.94C4.15 2.31 4.85 2 5.59 2C5.87 2 6.15 2.06 6.4 2.18C6.66 2.3 6.89 2.48 7.07 2.74L9.39 6.01C9.57 6.26 9.7 6.49 9.79 6.71C9.88 6.92 9.93 7.13 9.93 7.32C9.93 7.56 9.86 7.8 9.72 8.03C9.59 8.26 9.4 8.5 9.16 8.74L8.4 9.53C8.29 9.64 8.24 9.77 8.24 9.93C8.24 10.01 8.25 10.08 8.27 10.16C8.3 10.24 8.33 10.3 8.35 10.36C8.53 10.69 8.84 11.12 9.28 11.64C9.73 12.16 10.21 12.69 10.73 13.22C11.27 13.75 11.79 14.24 12.32 14.69C12.84 15.13 13.27 15.43 13.61 15.61C13.66 15.63 13.72 15.66 13.79 15.69C13.87 15.72 13.95 15.73 14.04 15.73C14.21 15.73 14.34 15.67 14.45 15.56L15.21 14.81C15.46 14.56 15.7 14.37 15.93 14.25C16.16 14.11 16.39 14.04 16.64 14.04C16.83 14.04 17.03 14.08 17.25 14.17C17.47 14.26 17.7 14.39 17.95 14.56L21.26 16.91C21.52 17.09 21.7 17.3 21.81 17.55C21.91 17.8 21.97 18.05 21.97 18.33Z" stroke="#292D32" stroke-width="1.5" stroke-miterlimit="10"/>
  <path d="M15 5.96997L17 7.96997L21 3.96997" stroke="#292D32" stroke-width="1.5" stroke-linecap="round" stroke-linejoin="round"/>
</svg>
